img/watermelon.svg

<?xml version="1.0" encoding="utf-8"?>
<!-- Generator: Adobe Illustrator 24.1.0, SVG Export Plug-In . SVG Version: 6.00 Build 0)  -->
<svg version="1.1" id="Calque_1" xmlns="http://www.w3.org/2000/svg" xmlns:xlink="http://www.w3.org/1999/xlink" x="0px" y="0px"
	 viewBox="0 0 283.46 283.46" style="enable-background:new 0 0 283.46 283.46;" xml:space="preserve">
<style type="text/css">
	.st0{fill:#FFFFFF;}
	.st1{fill:#0000FF;}
	.st2{fill:#FF0000;}
</style>
<g>
	<polygon class="st0" points="0,234.03 234.01,0 248.35,37.09 271.56,152.85 220.22,230.64 135.26,269.45 62.96,262.99 	"/>
	<path class="st1" d="M234.99,0.94c-0.32-0.32-0.66-0.61-0.98-0.94l-18,18c0.32,0.32,0.66,0.62,0.98,0.93
		c54.69,54.68,54.69,143.36,0,198.05c-54.68,54.69-143.36,54.68-198.05,0c-0.32-0.32-0.62-0.67-0.93-0.98L0,234.02
		c0.32,0.32,0.61,0.66,0.93,0.98c64.62,64.58,169.44,64.64,234.06,0C299.63,170.39,299.62,65.58,234.99,0.94z"/>
	<path class="st2" d="M198.4,35.62L35.61,198.41c44.95,44.96,117.85,44.95,162.79,0C243.37,153.47,243.37,80.59,198.4,35.62z
		 M98.92,194.09c-0.24,0.95-0.59,1.91-1.06,2.83c-2.88,5.65-9.13,8.24-13.95,5.77c-4.83-2.52-6.4-9.03-3.52-14.72
		c0.47-0.93,1.04-1.74,1.68-2.52c1.16-1.61,3.58-3.74,6.63-5.7c2.3-1.46,4.56-2.53,6.35-3.16l0,0l0,0c0.95-0.32,1.79-0.5,2.45-0.53
		c0.36,0.55,0.68,1.32,0.99,2.26c-0.01,0.02-0.03,0.04-0.04,0.04c0.01,0,0.03-0.03,0.04-0.04l0,0c0.57,1.81,0.99,4.28,1.17,7.01
		C99.86,188.99,99.55,192.21,98.92,194.09z M174.33,96.77c0.03-0.01,0.04,0,0.06-0.02C174.37,96.77,174.35,96.76,174.33,96.77
		L174.33,96.77c0.62-1.77,1.73-4.05,3.17-6.33c1.95-3.05,4.09-5.46,5.7-6.62c0.76-0.66,1.62-1.2,2.53-1.69
		c5.67-2.88,12.23-1.3,14.7,3.53c2.46,4.83-0.13,11.06-5.78,13.93c-0.93,0.47-1.88,0.84-2.83,1.07c-1.88,0.64-5.1,0.93-8.74,0.72
		c-2.71-0.15-5.17-0.61-6.99-1.18l0,0c0.01,0,0.03-0.03,0.05-0.03c-0.03,0-0.04,0.03-0.05,0.03c-0.95-0.3-1.74-0.64-2.27-0.99
		C173.83,98.55,174.02,97.73,174.33,96.77z M135.21,203.64c-5.35,0.85-10.48-3.55-11.48-9.82c-0.15-1.04-0.2-2.05-0.13-3.05
		c-0.02-1.99,0.68-5.17,2.01-8.5c0.99-2.53,2.16-4.74,3.27-6.29l0,0c0.01,0.03,0.01,0.04,0.01,0.06c0-0.02-0.01-0.03-0.01-0.06
		c0.59-0.82,1.16-1.46,1.66-1.85c0.6,0.22,1.34,0.66,2.15,1.24c0.01,0.02,0,0.06,0.01,0.07c0-0.01-0.01-0.04-0.01-0.07l0,0
		c1.53,1.15,3.32,2.79,5.05,4.9c2.32,2.79,3.97,5.6,4.56,7.57c0.38,0.91,0.65,1.89,0.8,2.92
		C144.08,197.03,140.55,202.79,135.21,203.64z M181.01,181.62c-3.84,3.82-10.55,3.29-15.04-1.2c-0.73-0.73-1.37-1.53-1.89-2.37
		c-1.2-1.6-2.48-4.56-3.38-8.08c-0.68-2.63-1.03-5.11-1.04-7.01l0,0c0.01,0.02,0.03,0.03,0.05,0.04c-0.03-0.01-0.04-0.02-0.05-0.04
		c-0.01-1.01,0.08-1.83,0.25-2.46c0.62-0.18,1.46-0.37,2.48-0.26l0,0l0,0c1.9,0.03,4.38,0.36,7.01,1.06c3.54,0.91,6.5,2.2,8.09,3.32
		c0.83,0.52,1.63,1.2,2.35,1.89C184.3,171.05,184.83,177.78,181.01,181.62z M189.16,143.65c-1.02-0.17-1.98-0.45-2.91-0.81
		c-1.9-0.59-4.67-2.24-7.5-4.53c-2.1-1.74-3.84-3.55-4.97-5.07l0,0l0,0c-0.6-0.81-1.02-1.54-1.23-2.15
		c0.39-0.51,1.02-1.07,1.83-1.67c0.03,0.01,0.05,0.02,0.07,0.02c-0.02,0-0.04-0.01-0.07-0.02c1.55-1.1,3.77-2.25,6.3-3.27
		c3.37-1.33,6.51-2.04,8.5-2c0.98-0.08,2.01-0.05,3.05,0.13c6.26,1,10.67,6.14,9.83,11.48C201.21,141.1,195.43,144.64,189.16,143.65
		z"/>
</g>
</svg>

<?xml version="1.0" encoding="UTF-8" standalone="no"?>
<!DOCTYPE svg PUBLIC "-//W3C//DTD SVG 1.1//EN" "http://www.w3.org/Graphics/SVG/1.1/DTD/svg11.dtd">
<!-- Created with Vectornator (http://vectornator.io/) -->
<svg height="100%" stroke-miterlimit="10" style="fill-rule:nonzero;clip-rule:evenodd;stroke-linecap:round;stroke-linejoin:round;" version="1.1" viewBox="0 0 283.46 283.46" width="100%" xml:space="preserve" xmlns="http://www.w3.org/2000/svg" xmlns:vectornator="http://vectornator.io" xmlns:xlink="http://www.w3.org/1999/xlink">
<defs/>
<clipPath id="ArtboardFrame">
<rect height="283.46" width="283.46" x="0" y="0"/>
</clipPath>
<g clip-path="url(#ArtboardFrame)" id="Sans-titre" vectornator:layerName="Sans titre">
<g opacity="1" vectornator:layerName="g">
<path d="M0 234.03L234.01 0L248.35 37.09L271.56 152.85L220.22 230.64L135.26 269.45L62.96 262.99L0 234.03Z" fill="#ffffff" fill-rule="nonzero" opacity="1" stroke="none" vectornator:layerName="polygon"/>
<path d="M234.99 0.94C234.67 0.62 234.33 0.33 234.01 0L216.01 18C216.33 18.32 216.67 18.62 216.99 18.93C271.68 73.61 271.68 162.29 216.99 216.98C162.31 271.67 73.63 271.66 18.94 216.98C18.62 216.66 18.32 216.31 18.01 216L0 234.02C0.32 234.34 0.61 234.68 0.93 235C65.55 299.58 170.37 299.64 234.99 235C299.63 170.39 299.62 65.58 234.99 0.94Z" fill="#0073ff" fill-rule="nonzero" opacity="1" stroke="none" vectornator:layerName="path"/>
<path d="M198.4 35.62L35.61 198.41C80.56 243.37 153.46 243.36 198.4 198.41C243.37 153.47 243.37 80.59 198.4 35.62ZM98.92 194.09C98.68 195.04 98.33 196 97.86 196.92C94.98 202.57 88.73 205.16 83.91 202.69C79.08 200.17 77.51 193.66 80.39 187.97C80.86 187.04 81.43 186.23 82.07 185.45C83.23 183.84 85.65 181.71 88.7 179.75C91 178.29 93.26 177.22 95.05 176.59L95.05 176.59L95.05 176.59C96 176.27 96.84 176.09 97.5 176.06C97.86 176.61 98.18 177.38 98.49 178.32C98.48 178.34 98.46 178.36 98.45 178.36C98.46 178.36 98.48 178.33 98.49 178.32L98.49 178.32C99.06 180.13 99.48 182.6 99.66 185.33C99.86 188.99 99.55 192.21 98.92 194.09ZM174.33 96.77C174.36 96.76 174.37 96.77 174.39 96.75C174.37 96.77 174.35 96.76 174.33 96.77L174.33 96.77C174.95 95 176.06 92.72 177.5 90.44C179.45 87.39 181.59 84.98 183.2 83.82C183.96 83.16 184.82 82.62 185.73 82.13C191.4 79.25 197.96 80.83 200.43 85.66C202.89 90.49 200.3 96.72 194.65 99.59C193.72 100.06 192.77 100.43 191.82 100.66C189.94 101.3 186.72 101.59 183.08 101.38C180.37 101.23 177.91 100.77 176.09 100.2L176.09 100.2C176.1 100.2 176.12 100.17 176.14 100.17C176.11 100.17 176.1 100.2 176.09 100.2C175.14 99.9 174.35 99.56 173.82 99.21C173.83 98.55 174.02 97.73 174.33 96.77ZM135.21 203.64C129.86 204.49 124.73 200.09 123.73 193.82C123.58 192.78 123.53 191.77 123.6 190.77C123.58 188.78 124.28 185.6 125.61 182.27C126.6 179.74 127.77 177.53 128.88 175.98L128.88 175.98C128.89 176.01 128.89 176.02 128.89 176.04C128.89 176.02 128.88 176.01 128.88 175.98C129.47 175.16 130.04 174.52 130.54 174.13C131.14 174.35 131.88 174.79 132.69 175.37C132.7 175.39 132.69 175.43 132.7 175.44C132.7 175.43 132.69 175.4 132.69 175.37L132.69 175.37C134.22 176.52 136.01 178.16 137.74 180.27C140.06 183.06 141.71 185.87 142.3 187.84C142.68 188.75 142.95 189.73 143.1 190.76C144.08 197.03 140.55 202.79 135.21 203.64ZM181.01 181.62C177.17 185.44 170.46 184.91 165.97 180.42C165.24 179.69 164.6 178.89 164.08 178.05C162.88 176.45 161.6 173.49 160.7 169.97C160.02 167.34 159.67 164.86 159.66 162.96L159.66 162.96C159.67 162.98 159.69 162.99 159.71 163C159.68 162.99 159.67 162.98 159.66 162.96C159.65 161.95 159.74 161.13 159.91 160.5C160.53 160.32 161.37 160.13 162.39 160.24L162.39 160.24L162.39 160.24C164.29 160.27 166.77 160.6 169.4 161.3C172.94 162.21 175.9 163.5 177.49 164.62C178.32 165.14 179.12 165.82 179.84 166.51C184.3 171.05 184.83 177.78 181.01 181.62ZM189.16 143.65C188.14 143.48 187.18 143.2 186.25 142.84C184.35 142.25 181.58 140.6 178.75 138.31C176.65 136.57 174.91 134.76 173.78 133.24L173.78 133.24L173.78 133.24C173.18 132.43 172.76 131.7 172.55 131.09C172.94 130.58 173.57 130.02 174.38 129.42C174.41 129.43 174.43 129.44 174.45 129.44C174.43 129.44 174.41 129.43 174.38 129.42C175.93 128.32 178.15 127.17 180.68 126.15C184.05 124.82 187.19 124.11 189.18 124.15C190.16 124.07 191.19 124.1 192.23 124.28C198.49 125.28 202.9 130.42 202.06 135.76C201.21 141.1 195.43 144.64 189.16 143.65Z" fill="#ff0000" fill-rule="nonzero" opacity="1" stroke="none" vectornator:layerName="path"/>
</g>
</g>
</svg>
